; generated by PrusaSlicer 2.5.0+win64 on 2022-12-05 at 16:43:15 UTC


;
;
; 

; external perimeters extrusion width = 0.45mm
; perimeters extrusion width = 0.45mm
; infill extrusion width = 0.45mm
; solid infill extrusion width = 0.45mm
; top infill extrusion width = 0.40mm
; first layer extrusion width = 0.42mm

M73 P0 R17
M73 Q0 S18
M201 X1000 Y1000 Z200 E5000 ; sets maximum accelerations, mm/sec^2
M203 X200 Y200 Z12 E120 ; sets maximum feedrates, mm / sec
M204 P1250 R1250 T1250 ; sets acceleration (P, T) and retract acceleration (R), mm/sec^2
M205 X8.00 Y8.00 Z0.40 E4.50 ; sets the jerk limits, mm/sec
M205 S0 T0 ; sets the minimum extruding and travel feed rate, mm/sec
M107
;TYPE:Custom
M862.3 P "MK3S" ; printer model check
M862.1 P0.4 ; nozzle diameter check
M115 U3.11.0 ; tell printer latest fw version
G90 ; use absolute coordinates
M83 ; extruder relative mode
M104 S215 ; set extruder temp
M140 S60 ; set bed temp
M190 S60 ; wait for bed temp
M109 S215 ; wait for extruder temp
G28 W ; home all without mesh bed level
G80 ; mesh bed leveling

G1 Z0.2 F720
G1 Y-3 F1000 ; go outside print area
G92 E0
G1 X60 E9 F1000 ; intro line
G1 X100 E12.5 F1000 ; intro line

G92 E0
M221 S95

; Don't change E values below. Excessive value can damage the printer.
M907 E430 ; set extruder motor current
G21 ; set units to millimeters
G90 ; use absolute coordinates
M83 ; use relative distances for extrusion
M900 K0.05 ; Filament gcode LA 1.5
M900 K30 ; Filament gcode LA 1.0
M107
;LAYER_CHANGE
;Z:0.2
;HEIGHT:0.2
;BEFORE_LAYER_CHANGE
G92 E0.0
;0.2


G1 E-.8 F2100
M73 Q0 S17
G1 Z.4 F720
;AFTER_LAYER_CHANGE
;0.2
G1 X99.2 Y98.828 F10800
G1 Z.2 F720
G1 E.8 F2100
M204 S800
;TYPE:Skirt/Brim
;WIDTH:0.42
G1 F1200
G1 X100.385 Y97.687 E.0516
G1 X101.779 Y96.758 E.05252
G1 X103.214 Y96.128 E.04912
G1 X104.715 Y95.75 E.04855
G1 X106.576 Y95.629 E.05847
G1 X146.399 Y98.128 E1.25107
G1 X147.818 Y98.312 E.04486
G1 X149.093 Y98.746 E.04222
G1 X150.258 Y99.421 E.04222
G1 X151.269 Y100.31 E.04222
G1 X152.088 Y101.379 E.04222
G1 X152.682 Y102.588 E.04222
G1 X153.029 Y103.889 E.04222
G1 X153.116 Y105.233 E.04222
G1 X152.938 Y106.568 E.04222
G1 X152.682 Y107.412 E.02766
G1 X152.088 Y108.621 E.04222
G1 X150.94 Y110.019 E.05674
G1 X149.871 Y110.838 E.04222
G1 X149.093 Y111.254 E.02766
G1 X147.361 Y111.779 E.05674
M73 Q1 S17
G1 X106.693 Y114.366 E1.27768
G1 X106.057 Y114.369 E.01996
M73 P1 R17
G1 X104.477 Y114.201 E.04981
G1 X103.105 Y113.832 E.04457
G1 X101.586 Y113.127 E.0525
G1 X100.498 Y112.405 E.04094
G1 X99.517 Y111.517 E.0415
G1 X98.536 Y110.319 E.04852
G1 X97.667 Y108.775 E.05558
G1 X97.162 Y107.311 E.04855
G1 X96.905 Y105.766 E.04911
G1 X96.916 Y104.119 E.05162
G1 X97.162 Y102.689 E.04549
G1 X97.766 Y101.023 E.05557
G1 X98.405 Y99.864 E.0415
G1 X99.163 Y98.875 E.03906
M204 S1000
; printing object ServoArm-CutResult.stl id:0 copy 0
;WIPE_START
G1 F8640
G1 X100.385 Y97.687 E-.3937
G1 X101.705 Y96.807 E-.3663
;WIPE_END
G1 E-.04 F2100
G1 Z.6 F720
G1 X146.971 Y108.638 F10800
G1 Z.2 F720
G1 E.8 F2100
M204 S800
;TYPE:Perimeter
;WIDTH:0.419999
G1 F1200
G1 X146.187 Y108.715 E.02471
G1 X107.26 Y111.16 E1.22293
G1 X106.274 Y111.212 E.03095
G1 X105.227 Y111.126 E.03294
G1 X104.234 Y110.874 E.03212
G1 X103.294 Y110.462 E.0322
G1 X102.436 Y109.901 E.03212
G1 X101.681 Y109.207 E.03216
G1 X101.051 Y108.397 E.03216
G1 X100.563 Y107.495 E.03216
G1 X100.23 Y106.525 E.03216
G1 X100.061 Y105.512 E.0322
G1 X100.061 Y104.487 E.03216
G1 X100.23 Y103.475 E.03216
G1 X100.563 Y102.505 E.03216
G1 X101.051 Y101.603 E.03216
G1 X101.68 Y100.794 E.03212
G1 X102.435 Y100.099 E.03216
G1 X103.295 Y99.538 E.0322
G1 X104.234 Y99.126 E.03216
G1 X105.228 Y98.874 E.03214
G1 X105.947 Y98.815 E.02262
G1 X106.497 Y98.792 E.01727
G1 X146.187 Y101.285 E1.24689
G1 X146.974 Y101.362 E.02479
G1 X147.669 Y101.573 E.0228
G1 X148.311 Y101.916 E.0228
G1 X148.873 Y102.377 E.0228
G1 X149.334 Y102.939 E.0228
G1 X149.677 Y103.581 E.0228
G1 X149.888 Y104.276 E.0228
G1 X149.959 Y105 E.0228
G1 X149.888 Y105.724 E.0228
G1 X149.677 Y106.419 E.0228
G1 X149.334 Y107.061 E.0228
G1 X148.873 Y107.623 E.0228
G1 X148.311 Y108.084 E.0228
G1 X147.702 Y108.41 E.02165
G1 X147.028 Y108.62 E.02212
M204 S1000
G1 X147.047 Y109.01 F10800
M204 S800
;TYPE:External perimeter
G1 F1200
G1 X146.217 Y109.091 E.02614
G1 X107.284 Y111.537 E1.22314
G1 X106.263 Y111.59 E.03205
M73 P2 R17
M73 Q2 S17
G1 X105.165 Y111.499 E.03454
G1 X104.111 Y111.232 E.03408
G1 X103.113 Y110.794 E.03416
G1 X102.203 Y110.2 E.03408
G1 X101.403 Y109.463 E.03412
G1 X100.734 Y108.604 E.03412
G1 X100.216 Y107.647 E.03412
G1 X99.863 Y106.618 E.03412
G1 X99.684 Y105.543 E.03416
G1 X99.684 Y104.455 E.03412
G1 X99.863 Y103.382 E.03412
G1 X100.216 Y102.353 E.03412
G1 X100.734 Y101.396 E.03412
G1 X101.402 Y100.538 E.03408
G1 X102.203 Y99.801 E.03412
G1 X103.115 Y99.205 E.03416
G1 X104.111 Y98.768 E.03412
G1 X105.165 Y98.501 E.0341
G1 X105.981 Y98.434 E.02567
G1 X106.513 Y98.416 E.01667
G1 X146.217 Y100.909 E1.24735
G1 X147.048 Y100.991 E.02616
G1 X147.814 Y101.223 E.02513
G1 X148.521 Y101.601 E.02513
G1 X149.141 Y102.109 E.02513
G1 X149.649 Y102.729 E.02513
G1 X150.027 Y103.436 E.02513
G1 X150.259 Y104.202 E.02513
G1 X150.338 Y105 E.02513
G1 X150.259 Y105.798 E.02513
G1 X150.027 Y106.564 E.02513
G1 X149.649 Y107.271 E.02513
G1 X149.141 Y107.891 E.02513
G1 X148.521 Y108.399 E.02513
G1 X147.848 Y108.759 E.02393
G1 X147.104 Y108.992 E.02445
M204 S1000
G1 X146.783 Y108.709 F10800
;WIPE_START
G1 F8640
G1 X146.217 Y109.091 E-.20606
G1 X143.823 Y109.242 E-.55394
;WIPE_END
G1 E-.04 F2100
G1 Z.6 F720
G1 X103.049 Y107.191 F10800
G1 Z.2 F720
G1 E.8 F2100
M204 S800
;TYPE:Perimeter
G1 F1200
G1 X102.662 Y106.485 E.02523
G1 X102.503 Y105.957 E.0173
G1 X102.383 Y105.406 E.01769
G1 X102.383 Y104.599 E.0253
G1 X102.503 Y104.043 E.01784
G1 X102.639 Y103.558 E.0158
G1 X103.012 Y102.848 E.02514
G1 X103.419 Y102.364 E.01982
G1 X103.723 Y102.045 E.01383
G1 X104.383 Y101.59 E.02514
G1 X105.029 Y101.327 E.02186
G1 X105.386 Y101.209 E.01179
G1 X106.269 Y101.109 E.02787
G1 X107.053 Y101.196 E.02474
G1 X107.88 Y101.47 E.0273
G1 X108.624 Y101.921 E.0273
G1 X109.25 Y102.527 E.0273
G1 X109.725 Y103.256 E.0273
G1 X110.026 Y104.073 E.0273
G1 X110.138 Y104.937 E.0273
G1 X110.054 Y105.803 E.0273
G1 X109.78 Y106.63 E.0273
G1 X109.329 Y107.374 E.0273
G1 X108.723 Y108 E.0273
G1 X107.994 Y108.475 E.0273
G1 X107.177 Y108.776 E.0273
G1 X106.332 Y108.885 E.0267
G1 X105.56 Y108.812 E.02431
G1 X105.254 Y108.758 E.00977
G1 X104.504 Y108.474 E.02514
G1 X103.816 Y108.019 E.02584
G1 X103.621 Y107.864 E.00781
G1 X103.078 Y107.244 E.02587
M204 S1000
G1 X103.298 Y106.88 F10800
M204 S800
;TYPE:External perimeter
G1 F1200
G1 X102.996 Y106.31 E.0202
G1 X102.765 Y105.446 E.02805
G1 X102.76 Y104.599 E.02655
G1 X102.957 Y103.776 E.02655
G1 X103.346 Y103.023 E.02655
G1 X103.701 Y102.614 E.01698
G1 X104.03 Y102.292 E.01443
G1 X104.597 Y101.9 E.02163
G1 X105.431 Y101.584 E.02797
G1 X106.256 Y101.486 E.02603
G1 X107.011 Y101.57 E.02383
G1 X107.755 Y101.826 E.02466
G1 X108.424 Y102.24 E.02467
G1 X108.983 Y102.793 E.02467
G1 X109.406 Y103.457 E.02467
G1 X109.67 Y104.198 E.02466
G1 X109.763 Y104.979 E.02467
G1 X109.68 Y105.761 E.02467
G1 X109.424 Y106.505 E.02467
G1 X109.01 Y107.174 E.02467
G1 X108.457 Y107.733 E.02466
G1 X107.793 Y108.156 E.02467
G1 X107.052 Y108.42 E.02466
G1 X106.29 Y108.511 E.02407
G1 X105.387 Y108.405 E.0285
G1 X104.638 Y108.121 E.02514
G1 X104.031 Y107.709 E.02301
G1 X103.702 Y107.387 E.01443
G1 X103.364 Y107.005 E.01597
G1 X103.326 Y106.933 E.00257
M204 S1000
G1 X102.898 Y106.89 F10800
;WIPE_START
G1 F8640
G1 X102.996 Y106.31 E-.16263
G1 X102.765 Y105.446 E-.20654
G1 X102.76 Y104.599 E-.19555
G1 X102.957 Y103.777 E-.19528
;WIPE_END
G1 E-.04 F2100
G1 Z.6 F720
G1 X147.937 Y101.845 F10800
G1 Z.2 F720
G1 E.8 F2100
M204 S800
;TYPE:Solid infill
;WIDTH:0.423014
G1 F1200
G1 X148.676 Y102.583 E.03301
G1 X149.098 Y103.097 E.02101
G1 X149.414 Y103.689 E.02122
G1 X149.488 Y103.933 E.00805
G1 X147.317 Y101.762 E.09704
G1 X146.918 Y101.641 E.01317
G1 X146.63 Y101.612 E.00915
G1 X149.638 Y104.62 E.13442
G1 X149.675 Y105 E.01207
G1 X149.657 Y105.177 E.00563
G1 X146.039 Y101.559 E.16174
G1 X145.465 Y101.523 E.01816
G1 X149.609 Y105.667 E.18522
G1 X149.484 Y106.079 E.01363
G1 X144.892 Y101.487 E.20527
G1 X144.318 Y101.451 E.01816
G1 X149.332 Y106.465 E.22408
G1 X149.145 Y106.815 E.01255
G1 X143.745 Y101.415 E.24135
G1 X143.172 Y101.379 E.01816
M73 Q3 S17
G1 X148.916 Y107.124 E.25677
G1 X148.674 Y107.419 E.01207
M73 P3 R17
G1 X142.598 Y101.343 E.27157
G1 X142.025 Y101.307 E.01816
G1 X148.379 Y107.662 E.28402
G1 X148.153 Y107.848 E.00926
G1 X148.071 Y107.891 E.00292
G1 X141.451 Y101.271 E.29588
G1 X140.878 Y101.236 E.01816
G1 X147.721 Y108.079 E.30586
G1 X147.592 Y108.148 E.00463
G1 X147.333 Y108.228 E.00856
G1 X140.304 Y101.2 E.31416
G1 X139.731 Y101.164 E.01816
G1 X146.924 Y108.357 E.32149
G1 X146.436 Y108.407 E.01549
G1 X139.157 Y101.128 E.32533
G1 X138.584 Y101.092 E.01816
G1 X145.94 Y108.448 E.32877
G1 X145.434 Y108.479 E.01602
G1 X138.011 Y101.056 E.33179
G1 X137.437 Y101.02 E.01816
G1 X144.928 Y108.511 E.33482
G1 X144.422 Y108.543 E.01602
G1 X136.864 Y100.984 E.33784
G1 X136.29 Y100.948 E.01816
G1 X143.917 Y108.575 E.34087
G1 X143.411 Y108.606 E.01602
G1 X135.717 Y100.912 E.34389
G1 X135.143 Y100.876 E.01816
G1 X142.905 Y108.638 E.34692
G1 X142.399 Y108.67 E.01602
G1 X134.57 Y100.84 E.34994
G1 X133.996 Y100.805 E.01816
G1 X141.893 Y108.702 E.35297
G1 X141.388 Y108.733 E.01602
G1 X133.423 Y100.769 E.35599
G1 X132.85 Y100.733 E.01816
G1 X140.882 Y108.765 E.35902
G1 X140.376 Y108.797 E.01602
G1 X132.276 Y100.697 E.36204
G1 X131.703 Y100.661 E.01816
M73 Q4 S17
G1 X139.87 Y108.829 E.36507
G1 X139.365 Y108.86 E.01602
M73 P4 R17
G1 X131.129 Y100.625 E.36809
G1 X130.556 Y100.589 E.01816
G1 X138.859 Y108.892 E.37112
G1 X138.353 Y108.924 E.01602
G1 X129.982 Y100.553 E.37414
G1 X129.409 Y100.517 E.01816
G1 X137.847 Y108.956 E.37717
G1 X137.342 Y108.988 E.01602
G1 X128.835 Y100.481 E.38019
G1 X128.262 Y100.445 E.01816
G1 X136.836 Y109.019 E.38322
G1 X136.33 Y109.051 E.01602
G1 X127.689 Y100.41 E.38624
G1 X127.115 Y100.374 E.01816
G1 X135.824 Y109.083 E.38927
G1 X135.319 Y109.115 E.01602
G1 X126.542 Y100.338 E.39229
G1 X125.968 Y100.302 E.01816
G1 X134.813 Y109.146 E.39532
G1 X134.307 Y109.178 E.01602
G1 X125.395 Y100.266 E.39834
G1 X124.821 Y100.23 E.01816
G1 X133.801 Y109.21 E.40137
G1 X133.295 Y109.242 E.01602
G1 X124.248 Y100.194 E.40439
G1 X123.674 Y100.158 E.01816
G1 X132.79 Y109.273 E.40742
G1 X132.284 Y109.305 E.01602
G1 X123.101 Y100.122 E.41044
G1 X122.528 Y100.086 E.01816
G1 X131.778 Y109.337 E.41347
G1 X131.272 Y109.369 E.01602
M73 P5 R17
M73 Q5 S17
G1 X121.954 Y100.05 E.41649
G1 X121.381 Y100.014 E.01816
G1 X130.767 Y109.4 E.41952
G1 X130.261 Y109.432 E.01602
G1 X120.807 Y99.979 E.42254
G1 X120.234 Y99.943 E.01816
G1 X129.755 Y109.464 E.42557
G1 X129.249 Y109.496 E.01602
G1 X119.66 Y99.907 E.42859
G1 X119.087 Y99.871 E.01816
G1 X128.744 Y109.528 E.43162
G1 X128.238 Y109.559 E.01602
G1 X118.513 Y99.835 E.43464
G1 X117.94 Y99.799 E.01816
M73 P5 R16
G1 X127.732 Y109.591 E.43767
G1 X127.226 Y109.623 E.01602
G1 X117.366 Y99.763 E.44069
G1 X116.793 Y99.727 E.01816
G1 X126.72 Y109.655 E.44372
G1 X126.215 Y109.686 E.01602
G1 X116.22 Y99.691 E.44674
G1 X115.646 Y99.655 E.01816
G1 X125.709 Y109.718 E.44977
G1 X125.203 Y109.75 E.01602
G1 X115.073 Y99.619 E.45279
G1 X114.499 Y99.584 E.01816
G1 X124.697 Y109.782 E.45582
G1 X124.192 Y109.813 E.01602
M73 Q6 S17
G1 X113.926 Y99.548 E.45884
G1 X113.352 Y99.512 E.01816
M73 P6 R16
M73 Q6 S16
G1 X123.686 Y109.845 E.46187
G1 X123.18 Y109.877 E.01602
G1 X112.779 Y99.476 E.46489
G1 X112.205 Y99.44 E.01816
G1 X122.674 Y109.909 E.46792
G1 X122.169 Y109.94 E.01602
G1 X111.632 Y99.404 E.47094
G1 X111.059 Y99.368 E.01816
G1 X121.663 Y109.972 E.47397
G1 X121.157 Y110.004 E.01602
G1 X110.485 Y99.332 E.47699
G1 X109.912 Y99.296 E.01816
G1 X120.651 Y110.036 E.48002
G1 X120.145 Y110.068 E.01602
G1 X109.338 Y99.26 E.48304
G1 X108.765 Y99.224 E.01816
G1 X119.64 Y110.099 E.48607
G1 X119.134 Y110.131 E.01602
G1 X108.191 Y99.188 E.48909
G1 X107.618 Y99.153 E.01816
G1 X118.628 Y110.163 E.49212
G1 X118.122 Y110.195 E.01602
G1 X107.044 Y99.117 E.49514
G1 X106.471 Y99.081 E.01816
G1 X117.617 Y110.226 E.49817
G1 X117.111 Y110.258 E.01602
M73 P7 R16
M73 Q7 S16
G1 X109.972 Y103.119 E.31909
G1 X109.566 Y102.471 E.02418
G1 X109.454 Y102.33 E.00567
G1 X108.92 Y101.796 E.02387
G1 X108.779 Y101.684 E.00567
G1 X108.131 Y101.278 E.02418
G1 X105.954 Y99.101 E.09731
G1 X105.455 Y99.14 E.01581
G1 X107.273 Y100.958 E.08126
G1 X107.09 Y100.915 E.00596
G1 X106.65 Y100.873 E.01394
G1 X105.001 Y99.223 E.07372
G1 X104.572 Y99.332 E.01398
G1 X106.081 Y100.841 E.06746
G1 X105.605 Y100.902 E.01519
G1 X104.167 Y99.464 E.06427
G1 X103.793 Y99.628 E.0129
G1 X105.149 Y100.984 E.06061
G1 X104.757 Y101.13 E.01321
G1 X103.421 Y99.793 E.05975
G1 X103.096 Y100.006 E.01227
G1 X104.369 Y101.279 E.05692
G1 X104.037 Y101.485 E.01234
G1 X102.77 Y100.218 E.05662
G1 X102.609 Y100.323 E.00609
G1 X102.468 Y100.453 E.00606
G1 X103.719 Y101.704 E.05592
G1 X103.417 Y101.94 E.0121
G1 X102.188 Y100.711 E.05494
G1 X101.908 Y100.969 E.01202
G1 X103.168 Y102.229 E.05632
G1 X102.92 Y102.518 E.01205
G1 X101.67 Y101.268 E.05587
G1 X101.435 Y101.57 E.01211
G1 X102.701 Y102.836 E.0566
G1 X102.519 Y103.191 E.01262
G1 X101.217 Y101.89 E.05817
G1 X101.028 Y102.239 E.01253
G1 X102.337 Y103.547 E.05849
G1 X102.23 Y103.978 E.01403
G1 X100.84 Y102.587 E.06216
G1 X100.823 Y102.619 E.00113
G1 X100.698 Y102.983 E.01217
G1 X102.124 Y104.409 E.06375
G1 X102.105 Y104.928 E.01642
G1 X100.56 Y103.383 E.06906
G1 X100.505 Y103.545 E.0054
G1 X100.459 Y103.819 E.0088
G1 X102.107 Y105.467 E.07366
G1 X102.123 Y105.599 E.00418
G1 X102.262 Y106.16 E.01826
G1 X100.235 Y104.132 E.09061
M204 S1000
;WIPE_START
G1 F8640
G1 X102.262 Y106.16 E-.66196
G1 X102.16 Y105.747 E-.09805
;WIPE_END
G1 E-.04 F2100
G1 Z.6 F720
G1 X110.015 Y103.7 F10800
G1 Z.2 F720
G1 E.8 F2100
M204 S800
G1 F1200
G1 X116.605 Y110.29 E.29453
G1 X116.099 Y110.322 E.01602
G1 X110.382 Y104.605 E.25553
G1 X110.425 Y105 E.01257
G1 X110.407 Y105.167 E.0053
G1 X115.594 Y110.353 E.23183
G1 X115.088 Y110.385 E.01602
G1 X110.355 Y105.652 E.21154
G1 X110.335 Y105.84 E.00597
G1 X110.265 Y106.1 E.00851
G1 X114.582 Y110.417 E.19295
G1 X114.076 Y110.449 E.01602
G1 X110.126 Y106.498 E.17657
G1 X109.971 Y106.881 E.01306
G1 X113.57 Y110.48 E.16086
G1 X113.065 Y110.512 E.01602
G1 X109.765 Y107.212 E.14749
G1 X109.556 Y107.541 E.01231
G1 X112.559 Y110.544 E.13421
G1 X112.053 Y110.576 E.01602
G1 X109.3 Y107.823 E.12304
G1 X109.032 Y108.092 E.01201
G1 X111.547 Y110.608 E.11245
G1 X111.042 Y110.639 E.01602
G1 X108.742 Y108.339 E.1028
G1 X108.411 Y108.547 E.01232
G1 X110.536 Y110.671 E.09495
G1 X110.03 Y110.703 E.01602
G1 X108.076 Y108.748 E.08736
G1 X107.686 Y108.896 E.01317
G1 X109.524 Y110.735 E.08217
G1 X109.019 Y110.766 E.01602
G1 X107.286 Y109.034 E.07743
G1 X107.188 Y109.068 E.00329
G1 X106.825 Y109.11 E.01155
G1 X108.513 Y110.798 E.07545
G1 X108.007 Y110.83 E.01602
G1 X106.343 Y109.166 E.07435
G1 X106.276 Y109.174 E.00215
G1 X105.756 Y109.116 E.01653
G1 X107.501 Y110.862 E.07801
G1 X106.995 Y110.893 E.01602
G1 X104.807 Y108.705 E.09782
M204 S1000
;WIPE_START
G1 F8640
G1 X106.995 Y110.893 E-.71469
G1 X107.191 Y110.881 E-.04531
;WIPE_END
G1 E-.04 F2100
G1 Z.6 F720
G1 X106.65 Y111.085 F10800
G1 Z.2 F720
G1 E.8 F2100
M204 S800
G1 F1200
G1 X100.343 Y104.779 E.28186
G1 X100.343 Y105.316 E.01699
G1 X105.927 Y110.9 E.24955
G1 X105.341 Y110.851 E.01858
G1 X100.417 Y105.927 E.22009
G1 X100.505 Y106.455 E.01693
M73 P8 R16
M73 Q8 S16
G1 X100.556 Y106.604 E.00495
G1 X104.636 Y110.684 E.18239
G1 X104.326 Y110.606 E.01011
G1 X103.781 Y110.367 E.01881
G1 X100.855 Y107.44 E.13081
G1 X101.289 Y108.242 E.02882
G1 X101.885 Y109.008 E.03068
G1 X103.034 Y110.157 E.05134
M204 S1000
; stop printing object ServoArm-CutResult.stl id:0 copy 0
M106 S84.15
;LAYER_CHANGE
;Z:0.35
;HEIGHT:0.15
;BEFORE_LAYER_CHANGE
G92 E0.0
;0.35


;WIPE_START
